X:5067
T:Farewell to the Foyle*
M:4/4
L:1/8
Q:100
C:Stephen P. McNally
R:Slow Air
K:G
DE F<D||: G6  AB| c<A {d}e2-~e2 d2-|d4 Bd e<f|g4-g Bd<e| f4-f B^c<d| e4-
e fg<e|!
|d  B6 B|c4-c ed<c|B4-B dB<G|A4-A GF<E|D4 DE F<D|G6 AB|!
|c<A {d}e2-~e2 d2-|d4 Bd e<f|g4Bd e/2f/2g|a4 g f<e f|1g8-|g4DE F<D:|2g8-
|g4Bd e<f|!
||:g4-g Bd<e|f4-f B^c<d|e4-e fg<e|d B4-B ~B2|c4 {d}e2 d<c|B4-B dB<G|A4-A
 GF<E|!
|D4 DE F<D|G6 AB|c<A {d}e2-~e2 d2-|d4 Bd e<f|g4Bd e/2f/2g|a4 g f<e f|1g8
-|g4Bd e<f:|2g8-|g8|
